img/trash.svg

<svg width="14" height="18" fill="none" xmlns="http://www.w3.org/2000/svg"><path d="M1 16c0 1.1.9 2 2 2h8c1.1 0 2-.9 2-2V4H1v12ZM14 1h-3.5l-1-1h-5l-1 1H0v2h14V1Z" fill="#EAEAEA"/></svg>

<svg width="14" height="18" viewBox="0 0 14 18" fill="none" xmlns="http://www.w3.org/2000/svg">
<path d="M1 16C1 17.1 1.9 18 3 18H11C12.1 18 13 17.1 13 16V4H1V16ZM14 1H10.5L9.5 0H4.5L3.5 1H0V3H14V1Z" fill="#EAEAEA"/>
</svg>
